src/icons/Droneship-Icon.svg

<svg fill="none" height="46" viewBox="0 0 102 46" width="102" xmlns="http://www.w3.org/2000/svg" xmlns:xlink="http://www.w3.org/1999/xlink"><mask id="a" fill="#fff"><path clip-rule="evenodd" d="m80 2h-58c-2.2091 0-4 1.79086-4 4v34c0 2.2091 1.7909 4 4 4h58c2.2091 0 4-1.7909 4-4v-34c0-2.20914-1.7909-4-4-4zm-58-2c-3.3137 0-6 2.68629-6 6v34c0 3.3137 2.6863 6 6 6h58c3.3137 0 6-2.6863 6-6v-34c0-3.31371-2.6863-6-6-6z" fill="#fff" fill-rule="evenodd"/></mask><g fill="#91a1bf"><path clip-rule="evenodd" d="m80 2h-58c-2.2091 0-4 1.79086-4 4v34c0 2.2091 1.7909 4 4 4h58c2.2091 0 4-1.7909 4-4v-34c0-2.20914-1.7909-4-4-4zm-58-2c-3.3137 0-6 2.68629-6 6v34c0 3.3137 2.6863 6 6 6h58c3.3137 0 6-2.6863 6-6v-34c0-3.31371-2.6863-6-6-6z" fill-rule="evenodd"/><path d="m22 3h58v-2h-58zm-3 3c0-1.65685 1.3431-3 3-3v-2c-2.7614 0-5 2.23858-5 5zm0 34v-34h-2v34zm3 3c-1.6569 0-3-1.3431-3-3h-2c0 2.7614 2.2386 5 5 5zm58 0h-58v2h58zm3-3c0 1.6569-1.3431 3-3 3v2c2.7614 0 5-2.2386 5-5zm0-34v34h2v-34zm-3-3c1.6569 0 3 1.34315 3 3h2c0-2.76142-2.2386-5-5-5zm-63 3c0-2.76142 2.2386-5 5-5v-2c-3.866 0-7 3.13401-7 7zm0 34v-34h-2v34zm5 5c-2.7614 0-5-2.2386-5-5h-2c0 3.866 3.134 7 7 7zm58 0h-58v2h58zm5-5c0 2.7614-2.2386 5-5 5v2c3.866 0 7-3.134 7-7zm0-34v34h2v-34zm-5-5c2.7614 0 5 2.23858 5 5h2c0-3.86599-3.134-7-7-7zm-58 0h58v-2h-58z" mask="url(#a)"/><path clip-rule="evenodd" d="m66 23c0 8.2843-6.7157 15-15 15s-15-6.7157-15-15 6.7157-15 15-15 15 6.7157 15 15zm1 0c0 8.8366-7.1634 16-16 16s-16-7.1634-16-16 7.1634-16 16-16 16 7.1634 16 16zm-16.4849 9.1689c-4.685-.2436-8.4408-3.9991-8.6847-8.6841h-1.0012c.2457 5.2375 4.4484 9.44 9.6859 9.6853zm-8.6831-9.684c.2582-4.6712 4.0079-8.4115 8.6831-8.6545v-1.0012c-5.2276.2449-9.4244 4.432-9.6845 9.6557zm9.6831-8.6528c4.6608.2579 8.3946 3.9919 8.6522 8.6528h1.0014c-.2596-5.2134-4.4403-9.3943-9.6536-9.6542zm8.6538 9.6527c-.2434 4.6747-3.9831 8.424-8.6538 8.6824v1.0014c5.2231-.2604 9.4098-4.4567 9.655-9.6838z" fill-rule="evenodd"/><path d="m15.5 9.5h-12.5c-1.38071 0-2.5 1.1193-2.5 2.5v22c0 1.3807 1.11929 2.5 2.5 2.5h12.5z" stroke="#91a1bf"/><path d="m2.5 12.5h12v5h-12z" stroke="#616b80"/><path d="m5.5 21.5h12v3h-12z" stroke="#616b80" transform="matrix(0 1 -1 0 27 16)"/><path d="m14.5 21.5h12v3h-12z" stroke="#616b80" transform="matrix(0 1 -1 0 36 7)"/></g><path d="m7.5 21.5h2v5h-2z" stroke="#616b80"/><path d="m7.5 28.5h2v5h-2z" stroke="#616b80"/><path d="m86.5 9.5h12.5c1.381 0 2.5 1.1193 2.5 2.5v22c0 1.3807-1.119 2.5-2.5 2.5h-12.5z" fill="#91a1bf" stroke="#91a1bf"/><path d="m87.5 12.5h11v5h-11z" fill="#616b80" stroke="#616b80"/><path d="m87.5 20.5h11v5h-11z" fill="#616b80" stroke="#616b80"/><path d="m87.5 28.5h11v5h-11z" fill="#616b80" stroke="#616b80"/></svg>

<svg width="102" height="46" viewBox="0 0 102 46" fill="none" xmlns="http://www.w3.org/2000/svg">
<mask id="path-1-inside-1" fill="white">
<path fill-rule="evenodd" clip-rule="evenodd" d="M80 2H22C19.7909 2 18 3.79086 18 6V40C18 42.2091 19.7909 44 22 44H80C82.2091 44 84 42.2091 84 40V6C84 3.79086 82.2091 2 80 2ZM22 0C18.6863 0 16 2.68629 16 6V40C16 43.3137 18.6863 46 22 46H80C83.3137 46 86 43.3137 86 40V6C86 2.68629 83.3137 0 80 0H22Z"/>
</mask>
<path fill-rule="evenodd" clip-rule="evenodd" d="M80 2H22C19.7909 2 18 3.79086 18 6V40C18 42.2091 19.7909 44 22 44H80C82.2091 44 84 42.2091 84 40V6C84 3.79086 82.2091 2 80 2ZM22 0C18.6863 0 16 2.68629 16 6V40C16 43.3137 18.6863 46 22 46H80C83.3137 46 86 43.3137 86 40V6C86 2.68629 83.3137 0 80 0H22Z" fill="#91A1BF"/>
<path d="M22 3H80V1H22V3ZM19 6C19 4.34315 20.3431 3 22 3V1C19.2386 1 17 3.23858 17 6H19ZM19 40V6H17V40H19ZM22 43C20.3431 43 19 41.6569 19 40H17C17 42.7614 19.2386 45 22 45V43ZM80 43H22V45H80V43ZM83 40C83 41.6569 81.6569 43 80 43V45C82.7614 45 85 42.7614 85 40H83ZM83 6V40H85V6H83ZM80 3C81.6569 3 83 4.34315 83 6H85C85 3.23858 82.7614 1 80 1V3ZM17 6C17 3.23858 19.2386 1 22 1V-1C18.134 -1 15 2.13401 15 6H17ZM17 40V6H15V40H17ZM22 45C19.2386 45 17 42.7614 17 40H15C15 43.866 18.134 47 22 47V45ZM80 45H22V47H80V45ZM85 40C85 42.7614 82.7614 45 80 45V47C83.866 47 87 43.866 87 40H85ZM85 6V40H87V6H85ZM80 1C82.7614 1 85 3.23858 85 6H87C87 2.13401 83.866 -1 80 -1V1ZM22 1H80V-1H22V1Z" fill="#91A1BF" mask="url(#path-1-inside-1)"/>
<path fill-rule="evenodd" clip-rule="evenodd" d="M66 23C66 31.2843 59.2843 38 51 38C42.7157 38 36 31.2843 36 23C36 14.7157 42.7157 8 51 8C59.2843 8 66 14.7157 66 23ZM67 23C67 31.8366 59.8366 39 51 39C42.1634 39 35 31.8366 35 23C35 14.1634 42.1634 7 51 7C59.8366 7 67 14.1634 67 23ZM50.5151 32.1689C45.8301 31.9253 42.0743 28.1698 41.8304 23.4848H40.8292C41.0749 28.7223 45.2776 32.9248 50.5151 33.1701V32.1689ZM41.832 22.4849C42.0902 17.8137 45.8399 14.0734 50.5151 13.8304V12.8292C45.2875 13.0741 41.0907 17.2612 40.8306 22.4849H41.832ZM51.5151 13.8321C56.1759 14.09 59.9097 17.824 60.1673 22.4849H61.1687C60.9091 17.2715 56.7284 13.0906 51.5151 12.8307V13.8321ZM60.1689 23.4848C59.9255 28.1595 56.1858 31.9088 51.5151 32.1672V33.1686C56.7382 32.9082 60.9249 28.7119 61.1701 23.4848H60.1689Z" fill="#91A1BF"/>
<path d="M15.5 9.5H3C1.61929 9.5 0.5 10.6193 0.5 12V34C0.5 35.3807 1.61929 36.5 3 36.5H15.5V9.5Z" fill="#91A1BF" stroke="#91A1BF"/>
<path d="M86.5 9.5H99C100.381 9.5 101.5 10.6193 101.5 12V34C101.5 35.3807 100.381 36.5 99 36.5H86.5V9.5Z" fill="#91A1BF" stroke="#91A1BF"/>
</svg>
